assets/icons/qvision/system_update.svg

<svg xmlns="http://www.w3.org/2000/svg" height="24" viewBox="0 0 24 24" width="24"><path d="M0 0h24v24H0z" fill="none"/><path d="M17 1.01L7 1c-1.1 0-2 .9-2 2v18c0 1.1.9 2 2 2h10c1.1 0 2-.9 2-2V3c0-1.1-.9-1.99-2-1.99zM17 19H7V5h10v14zm-1-6h-3V8h-2v5H8l4 4 4-4z"/></svg>

<svg width="24" height="24" viewBox="0 0 24 24" fill="none" xmlns="http://www.w3.org/2000/svg">
<g clip-path="url(#clip0_147_6050)">
<path d="M17 1.01L7 1C5.9 1 5 1.9 5 3V21C5 22.1 5.9 23 7 23H17C18.1 23 19 22.1 19 21V3C19 1.9 18.1 1.01 17 1.01ZM17 19H7V5H17V19ZM16 13H13V8H11V13H8L12 17L16 13Z" fill="#323232"/>
</g>
<defs>
<clipPath id="clip0_147_6050">
<rect width="24" height="24" fill="white"/>
</clipPath>
</defs>
</svg>
